X:1
T:Come, let us join our cheerful songs
T:Come, let us join our cheerful songs - Wigton (Thomas Clark)
C:Thomas Clark
Z:Text: Isaac Watts
%%score [ 1 2 3 4 ]
L:1/8
M:3/4
K:G
V:1 treble nm="Air" snm="S."
V:2 treble nm="[Alto]" snm="A."
V:3 treble-8 transpose=-12 nm="Tenor" snm="T."
V:4 bass nm="[Bass]" snm="B."
V:1
 d2 B2 G2 | d4 c2 | (B>A G2) F2 | G4 A2 | (B2 ^c2) d2 | d4 ^c2 | d4 z2 | z4 d2 | (B>A G2) B2 | %9
w: Je- sus is|wor- thy|to _ _ re-|ceive Ho-|nour _ and|pow’r di-|vine;|And|bles- * * sings|
w: Come, let us|join our|cheer- * * ful|songs With|an- * gels|round the|throne;|Ten|thou- * * sand|
w: Wor- thy the|Lamb that|died, _ _ they|cry, To|be _ ex-|al- ted|thus:|Wor-|thy _ _ the|
 c3 e dc | B4 d2 | (d2 c2) c2 | (c2 B2) B2 | (B2 A2) A2 | (A2 G2) (AB/c/) | B4 A2 | G4 |] %17
w: more than we can|give, Be,|Lord, _ for|ev- * er|thine, _ be,|Lord, _ for _ _|ev- er|thine.|
w: thou- sand are their|tongues, But|all _ their|joys _ are|one, _ but|all _ their _ _|joys are|one.|
w: Lamb, our lips re-|ply, For|he _ was|slain _ for|us, _ for|he _ was _ _|slain for|us.|
V:2
 z6 | F2 A2 F2 | G>E D2 D2 | D4 D2 | (D2 E2) F2 | (G2 F2) E2 | F4 z2 | z4 D2 | D4 D2 | E3 E FF | %10
w: |Je- sus is|wor- thy to re-|ceive Ho-|nour _ and|pow’r _ di-|vine;|And|bles- sings|more than we can|
w: |Come, let us|join our cheer- ful|songs With|an- * gels|round _ the|throne;|Ten|thou- sand|thou- sand are their|
w: |Wor- thy the|Lamb that died, they|cry, To|be _ ex-|al- * ted|thus:|Wor-|thy the|Lamb, our lips re-|
 G4 F2 | G4 E2 | F4 D2 | E4 C2 | D4 E2 | D4 C2 | B,4 |] %17
w: give, Be,|Lord, for|ev- er|thine, be,|Lord, for|ev- er|thine.|
w: tongues, But|all their|joys are|one, but|all their|joys are|one.|
w: ply, For|he was|slain for|us, for|he was|slain for|us.|
V:3
 z6 | d2 d2 d2 | d>c B2 A2 | B4 F2 | G4 A2 | B2 A4 | A4 z2 | z4 A2 | (d>c B2) G2 | G3 c Ad | %10
w: |Je- sus is|wor- thy to re-|ceive Ho-|nour and|pow’r di-|vine;|And|bles- * * sings|more than we can|
w: |Come, let us|join our cheer- ful|songs With|an- gels|round the|throne;|Ten|thou- * * sand|thou- sand are their|
w: |Wor- thy the|Lamb that died, they|cry, To|be ex-|al- ted|thus:|Wor-|thy _ _ the|Lamb, our lips re-|
 d4 B2 | (B2 G2) A2 | (A2 F2) G2 | (G2 E2) F2 | (F2 G2) G2 | G4 F2 | G4 |] %17
w: give, Be,|Lord, _ for|ev- * er|thine, _ be,|Lord, _ for|ev- er|thine.|
w: tongues, But|all _ their|joys _ are|one, _ but|all _ their|joys are|one.|
w: ply, For|he _ was|slain _ for|us, _ for|he _ was|slain for|us.|
V:4
 z6 |"^64" A,2"^6" F,2"^7" D,2 | G,>"^6"C,"^64" D,2"^53" D,2 | G,,4 D,2 |"^53""^6F" G,4"^6" F,2 | %5
w: |Je- sus is|wor- thy to re-|ceive Ho-|nour and|
w: |Come, let us|join our cheer- ful|songs With|an- gels|
w: |Wor- thy the|Lamb that died, they|cry, To|be ex-|
"^7" E,2"^64""^5#" A,4 | D,4 A,2 | (F,>E, D,2)"^6" F,2 | G,4"^42" =F,2 | %9
w: pow’r di-|vine; And|bles- * * sings|more than|
w: round the|throne; Ten|thou- * * sand|thou- sand|
w: al- ted|thus: Wor-|thy _ _ the|Lamb, our|
 (E,2"^7""^5" A,,2)"^8""^7" D,2 | G,4 B,2 | %11
w: we _ can|give, Be,|
w: are _ their|tongues, But|
w: lips _ re-|ply, For|
"^The order of parts in the source is Tenor - [Alto] - Air - [Bass], with the Alto and Tenor parts printed in the trebleclef an octave above sounding pitch. Only the first verse of the text is given in the source: subsequent verseshave been added editorially here. The bass figuring on beat 2 of bar 5 to indicate the presence of the C# abovethe bass G, given here as #4, is printed in the source with the # sign alone (without a 4 beside it)""^7""^6" E,4 A,2 | %12
w: Lord, for|
w: all their|
w: he was|
"^7""^6" D,4"^The whole creation join in one,To bless the sacred nameOf him that sits upon the throne,And to adore the Lamb." G,2 | %13
w: ev- er|
w: joys are|
w: slain for|
"^7""^6" C,4 F,2 |"^7""^6" B,,4"^65" C,2 |"^64" D,4"^75" D,2 | G,,4 |] %17
w: thine, be,|Lord, for|ev- er|thine.|
w: one, but|all their|joys are|one.|
w: us, for|he was|slain for|us.|

